X:1
T:Gerhardt, 76.76 D
T:Gerhardt, 76.76 D
T:Joseph Perry Holbrook, 1862
T:Public Domain Courtesy of the Cyber Hymnal™
C:Joseph Perry Holbrook, 1862
Z:Public Domain
Z:Courtesy of the Cyber Hymnal™
%%score ( 1 2 ) ( 3 4 )
L:1/8
Q:1/4=115
M:4/4
K:G
V:1 treble 
V:2 treble 
V:3 bass 
V:4 bass 
V:1
 D2 | [DB]3 [DA] [Gc]2 [GB]2 | [FA]4 [DG]2 D2 | [Ac]3 [GB] [Fd]2 [FA]2 | [DB]6 D2 | %5
 [DB]3 [DA] [Gc]2 [GB]2 | [FA]4 G2 [EB]2 | [FA]3 [DF] [EG]2 [^CE]2 | D6 D2 | %9
 [FA]3 [FA] [DF]2 [GB]2 | [FA]4 [DF]2 [DA]2 | [DB]3 [GB] [G^c]2 [Gc]2 | [Fd]6 D2 | %13
 [DB]3 [DA] [Gc]2 [GB]2 | [FA]4 [EG]2 E2 | D3 [DB] [FA]2 [DF]2 | [DG]6 |] %17
V:2
 D2 | x8 | x6 D2 | x8 | x6 D2 | x8 | x4 G2 x2 | x8 | D6 D2 | x8 | x8 | x8 | x6 D2 | x8 | x6 E2 | %15
 D3 x5 | x6 |] %17
V:3
 [G,,B,]2 | [G,D]3 [G,C] [G,E]2 [G,D]2 | [D,C]4 [G,,B,]2 [G,B,]2 | [D,F,]3 [D,G,] [D,A,]2 [D,C]2 | %4
 [G,,G,B,]6 [G,B,]2 | [G,D]3 [G,C] [G,E]2 [G,D]2 | [D,C]4 [E,B,]2 [G,B,]2 | %7
 [A,D]3 A, [A,,A,]2 [A,,G,]2 | [D,F,]6 D,2 | D,3 D, D,2 D,2 | D,4 D,2 [F,D]2 | %11
 [G,B,]3 [E,B,] A,2 [A,,A,]2 | [D,A,]6 [G,,B,]2 | [G,D]3 [G,C] [G,E]2 [G,D]2 | %14
 [D,C]4 [E,B,]2 [C,C]2 | [D,B,]3 [D,D] [D,C]2 [D,A,]2 | [G,,B,]6 |] %17
V:4
 x2 | x8 | x8 | x8 | x8 | x8 | x8 | x3 A, x4 | x8 | x8 | x8 | x4 A,2 x2 | x8 | x8 | x8 | x8 | x6 |] %17

